X: 66
T: Domine non secundum
N: Derived from Mar2036-Domine_non_secundum.krn
C: Johannes Martini
%%abc-version 2.0
%%abcx-abcm2ps-target-version 5.9.1 (29 Sep 2008)
%%abc-creator hum2abc beta
%%abcx-conversion-date 2019/02/17 07:19:42
%%abc-edited-by Jesse Rodin
%%abc-edited-by Chris Gage 09-11-2014
%%abcx-initial-encoding-date 2014/10/09/
%%humdrum-veritas 2768348305
%%humdrum-veritas-data 3239228263
%%linebreak <none>
%%barnumbers 0
L: 1/4
M: 2/1
Q: 1/2=120
V: 1 clef=treble
V: 2 clef=treble-8
V: 3 clef=bass
K: C
[V:1] D8- | 
[V:2] D6E2 | 
[V:3] D,8- | 
[V:1] D8 | 
[V:2] F4G4 | 
[V:3] D,4G,,4 | 
[V:1] C8 | 
[V:2] E8 | 
[V:3] A,,8 | 
[V:1] D8 | 
[V:2] D4F4 | 
[V:3] D,8 | 
[V:1] C4A,4 | 
[V:2] E4A4- | 
[V:3] A,,8 | 
[V:1] B,8 | 
[V:2] A4^G4 | 
[V:3] E,8 | 
[V:1] A,4C4 | 
[V:2] A8 | 
[V:3] A,,8 | 
[V:1] D4C2D2- | 
[V:2] F6D2 | 
[V:3] A,6F,2 | 
[V:1] D2CB,C3D | 
[V:2] F2G2E4 | 
[V:3] A,2B,2G,4 | 
[V:1] E2F4E2- | 
[V:2] A,4A4 | 
[V:3] A,4A,,2C,2- | 
[V:1] E2D4^C2 | 
[V:2] G2F2E4 | 
[V:3] C,2D,2A,,4 | 
[V:1] D8 | 
[V:2] D8- | 
[V:3] A,4A,2F,2- | 
[V:1] z4D4 | 
[V:2] D8 | 
[V:3] F,2E,2D,3C, | 
[V:1] C4D4 | 
[V:2] A4B4 | 
[V:3] A,,4G,,4 | 
[V:1] C4A,4- | 
[V:2] c6d2 | 
[V:3] A,,8 | 
[V:1] A,4C4 | 
[V:2] e4A4 | 
[V:3] A,8 | 
[V:1] D4F4- | 
[V:2] _B4A4 | 
[V:3] G,4F,2D,2- | 
[V:1] F2EDF2E2- | 
[V:2] D6E2 | 
[V:3] D,2_B,,4C,2 | 
[V:1] EDD4^C2 | 
[V:2] F2G2E4 | 
[V:3] D,2G,,2A,,4 | 
[V:1] D8 | 
[V:2] D8 | 
[V:3] z4_B,,4 | 
[V:1] z4E4- | 
[V:2] A6B2 | 
[V:3] A,,4C,4- | 
[V:1] E4D4 | 
[V:2] c4B4 | 
[V:3] C,2B,,2G,,4 | 
[V:1] E4F4 | 
[V:2] A6GF | 
[V:3] z4D,4 | 
[V:1] G6FE | 
[V:2] E6F2 | 
[V:3] C,8 | 
[V:1] D4C4 | 
[V:2] G4A3B | 
[V:3] B,,4A,,4 | 
[V:1] z4C4 | 
[V:2] c2d2e4 | 
[V:3] A,,6B,,2 | 
[V:1] E4F4 | 
[V:2] c2A4F2 | 
[V:3] C,4D,4 | 
[V:1] E2D2A,2D2- | 
[V:2] G2D2F4 | 
[V:3] z4D,4 | 
[V:1] D2^C2D4 | 
[V:2] E4D4 | 
[V:3] A,,4A,4 | 
[V:1] F4G4 | 
[V:2] z2d4c2 | 
[V:3] D,4E,4 | 
[V:1] F4F2G2- | 
[V:2] d4A2B2 | 
[V:3] D,4z2G,,2 | 
[V:1] G2F4E2 | 
[V:2] c2BAG4 | 
[V:3] A,,2B,,2C,4 | 
[V:1] F8 | 
[V:2] F4z4 | 
[V:3] z4F,4 | 
[V:1] z8 | 
[V:2] C4E4 | 
[V:3] A,2G,4F,E, | 
[V:1] z8 | 
[V:2] F4D4 | 
[V:3] D,2A,4_B,2 | 
[V:1] z8 | 
[V:2] F4G2A2- | 
[V:3] A,2G,F,E,2F,2- | 
[V:1] z8 | 
[V:2] AGF2E4 | 
[V:3] F,E,D,4^C,2 | 
[V:1] D4D4 | 
[V:2] D4z4 | 
[V:3] D,4G,4- | 
[V:1] D2D4E2 | 
[V:2] z8 | 
[V:3] G,2F,E,F,2G,2 | 
[V:1] F2G3FED | 
[V:2] z8 | 
[V:3] A,2_B,2G,2A,2- | 
[V:1] E2D4^C2 | 
[V:2] z8 | 
[V:3] A,2F,2E,4 | 
[V:1] D8 | 
[V:2] D4F4 | 
[V:3] D,8 | 
[V:1] z4D4 | 
[V:2] E2A4^G2 | 
[V:3] C,2A,,2B,,4 | 
[V:1] C4D4 | 
[V:2] A4D4 | 
[V:3] A,,4A,4 | 
[V:1] F4G4 | 
[V:2] d4B2c2- | 
[V:3] D,4E,4 | 
[V:1] E2F2G2A2- | 
[V:2] c2d2B2A2 | 
[V:3] z2D,2E,2F,2- | 
[V:1] AGF4E2 | 
[V:2] c2A2G4 | 
[V:3] F,2F,2C,4 | 
[V:1] F4z4 | 
[V:2] F4A4 | 
[V:3] z4F,4 | 
[V:1] z8 | 
[V:2] B2c4d2- | 
[V:3] E,4F,4 | 
[V:1] z8 | 
[V:2] d2B2A2c2- | 
[V:3] G,4F,4 | 
[V:1] z8 | 
[V:2] cBG3FE2 | 
[V:3] E,4C,4 | 
[V:1] z8 | 
[V:2] D2d4^c2 | 
[V:3] D,4E,4 | 
[V:1] F4F2E2- | 
[V:2] d2A4G2 | 
[V:3] D,4A,,2C,2 | 
[V:1] E2D4^C2 | 
[V:2] F2D2E4 | 
[V:3] D,2B,,2A,,4 | 
[V:1] D4C2A,2- | 
[V:2] D3CA,4 | 
[V:3] z2A,3G,F,E, | 
[V:1] A,2D2C2D2- | 
[V:2] D4E2F2 | 
[V:3] F,4E,2D,2 | 
[V:1] D2E4F2- | 
[V:2] G4A4 | 
[V:3] G,,2C,2A,,2D,2- | 
[V:1] FED4^C2 | 
[V:2] F2G2E4 | 
[V:3] D,2G,,2A,,4 | 
[V:1] D8 ||  
[V:2] D8 ||  
[V:3] A,8 ||  
[V:1] F6E2 | 
[V:2] d6cB | 
[V:3] D,8 | 
[V:1] F4G4 | 
[V:2] A4B4 | 
[V:3] D,4G,4 | 
[V:1] G2A4G2 | 
[V:2] c4A2c2 | 
[V:3] C,2F,4E,2 | 
[V:1] F2G3FF2- | 
[V:2] d2B2c2A2 | 
[V:3] D,2E,2C,2F,2 | 
[V:1] F2E2F4 | 
[V:2] G4F4 | 
[V:3] C,4D,4 | 
[V:1] F4E2C2 | 
[V:2] D4G4- | 
[V:3] z4C,4 | 
[V:1] D4C4 | 
[V:2] G4A4 | 
[V:3] B,,4A,,4 | 
[V:1] D2E2F4 | 
[V:2] B2c2d2A2- | 
[V:3] z4D,4 | 
[V:1] E2D4^C2 | 
[V:2] A2F2E4 | 
[V:3] C,2D,2A,,4 | 
[V:1] D8 | 
[V:2] D4z4 | 
[V:3] A,4F,4 | 
[V:1] z8 | 
[V:2] C4F4 | 
[V:3] G,2A,3G,F,E, | 
[V:1] z8 | 
[V:2] F4F2G2- | 
[V:3] D,4D,2E,2- | 
[V:1] z8 | 
[V:2] GEA4^G2 | 
[V:3] E,2C,2B,,4 | 
[V:1] z8 | 
[V:2] A4G4 | 
[V:3] A,,4B,,2C,2 | 
[V:1] z8 | 
[V:2] F4E2F2 | 
[V:3] D,4C,2A,,2- | 
[V:1] z8 | 
[V:2] E2D2E4 | 
[V:3] A,,2D,4^C,2 | 
[V:1] D4D4 | 
[V:2] D6d2- | 
[V:3] D,4z4 | 
[V:1] F4E4 | 
[V:2] d2cBc4 | 
[V:3] D,4A,4 | 
[V:1] D2F4E2 | 
[V:2] d4A4 | 
[V:3] D,4z4 | 
[V:1] D2C2A,2D2- | 
[V:2] _B2A3GF2 | 
[V:3] z8 | 
[V:1] D2^C2D4 | 
[V:2] E4D4 | 
[V:3] z8 | 
[V:1] F4A4- | 
[V:2] z4d4 | 
[V:3] D,4D,4 | 
[V:1] A2GA_BAGF | 
[V:2] c4d4 | 
[V:3] F,4D,4 | 
[V:1] E2G3AB2- | 
[V:2] e2c4B2 | 
[V:3] C,4E,4 | 
[V:1] BAG4^F2 | 
[V:2] G4A4 | 
[V:3] E,4D,4 | 
[V:1] G4C4 | 
[V:2] G4z2A2 | 
[V:3] E,4F,4 | 
[V:1] z2D2F2G2 | 
[V:2] B2d3cc2- | 
[V:3] G,4F,2E,2 | 
[V:1] A2GFE4 | 
[V:2] c2B2c4 | 
[V:3] D,4C,4 | 
[V:1] C4C4 | 
[V:2] A6B2 | 
[V:3] F,8 | 
[V:1] E4F4 | 
[V:2] c4d4 | 
[V:3] E,4D,4 | 
[V:1] D4D2C2 | 
[V:2] _B4A4 | 
[V:3] G,4D,2F,2 | 
[V:1] D2E3DD2- | 
[V:2] F2G4F2 | 
[V:3] D,2C,4D,2 | 
[V:1] D2^C2D4 | 
[V:2] E4D4 | 
[V:3] A,,4z4 | 
[V:1] z8 | 
[V:2] D4D4 | 
[V:3] A,4_B,2A,2- | 
[V:1] z8 | 
[V:2] D4C4 | 
[V:3] A,G,F,2E,2G,2 | 
[V:1] z8 | 
[V:2] D2F2E4 | 
[V:3] F,2D,4^C,2 | 
[V:1] D4C4 | 
[V:2] D4z4 | 
[V:3] D,4A,,4 | 
[V:1] D2F4E2 | 
[V:2] D4C4 | 
[V:3] z2A,4G,2 | 
[V:1] F2A2G2_B2 | 
[V:2] D2F4E2 | 
[V:3] F,3E,C,2G,2 | 
[V:1] A2GFE2D2 | 
[V:2] F2A2G2_B2 | 
[V:3] A,2C2_B,2D2 | 
[V:1] F4z4 | 
[V:2] A2GFE3D | 
[V:3] C2_B,A,G,4 | 
[V:1] F4F4 | 
[V:2] F4z2A2- | 
[V:3] F,4D,4- | 
[V:1] F4G4 | 
[V:2] A2d4^c2 | 
[V:3] D,2F,2E,4 | 
[V:1] F4F4- | 
[V:2] d3cA2B2- | 
[V:3] D,4D,4- | 
[V:1] F2E2D4 | 
[V:2] BAA4^G2 | 
[V:3] D,2C,2B,,4 | 
[V:1] C3DEFG2- | 
[V:2] A6B2 | 
[V:3] A,,4z2G,,2 | 
[V:1] GFF4E2 | 
[V:2] c2F2G4 | 
[V:3] A,,2D,2C,4 | 
[V:1] F4z4 | 
[V:2] F4D4 | 
[V:3] z4F,4 | 
[V:1] A4c4- | 
[V:2] z4A4 | 
[V:3] F,4F,4 | 
[V:1] c2B2A4 | 
[V:2] G4A2c2 | 
[V:3] E,4F,4 | 
[V:1] G2B3AA2- | 
[V:2] B2d3cA2 | 
[V:3] G,4F,4 | 
[V:1] A2G2A2GF | 
[V:2] B4A2B2 | 
[V:3] G,4D,4 | 
[V:1] E4F4 | 
[V:2] c2e3dd2- | 
[V:3] C,4D,4 | 
[V:1] G3A_B2A2- | 
[V:2] d2c2d2f2- | 
[V:3] E,4D,4 | 
[V:1] A2GFE4 | 
[V:2] f2ed^c3B | 
[V:3] A,8 | 
[V:1] D8 ||  
[V:2] d8 ||  
[V:3] D,8 ||  
[V:1] F4G4 | 
[V:2] z8 | 
[V:3] F,4E,4 | 
[V:1] A4_B4 | 
[V:2] F4G4 | 
[V:3] D,4G,,4 | 
[V:1] A2A4G2 | 
[V:2] A4_B4 | 
[V:3] D,6E,2 | 
[V:1] A4z4 | 
[V:2] A2A4G2 | 
[V:3] F,E,D,C,D,2E,2 | 
[V:1] A4A4 | 
[V:2] A4z4 | 
[V:3] A,,2D,3E,F,2 | 
[V:1] G3FG2A2- | 
[V:2] z8 | 
[V:3] G,2E,3D,C,2 | 
[V:1] A2^G2A4 | 
[V:2] z8 | 
[V:3] B,,4A,,4 | 
[V:1] z8 | 
[V:2] F4F4 | 
[V:3] A,3B,C2D2- | 
[V:1] z8 | 
[V:2] D4F4 | 
[V:3] D2A,4D2- | 
[V:1] z8 | 
[V:2] G2A4^G2 | 
[V:3] DCB,A,B,4 | 
[V:1] A6G2 | 
[V:2] A4c4 | 
[V:3] A,2F,4E,2 | 
[V:1] F4E2F2- | 
[V:2] d4c2A2 | 
[V:3] D,3C,A,,4 | 
[V:1] FEDCD2E2- | 
[V:2] _B3AGFG2 | 
[V:3] z8 | 
[V:1] EDD4^C2 | 
[V:2] A2F2E4 | 
[V:3] z8 | 
[V:1] D8 | 
[V:2] D8 | 
[V:3] D,4F,4 | 
[V:1] z4D4 | 
[V:2] z8 | 
[V:3] E,4D,2F,2- | 
[V:1] F4E4 | 
[V:2] z8 | 
[V:3] F,E,D,4^C,2 | 
[V:1] D2F3ED2- | 
[V:2] D4F4 | 
[V:3] D,2A,4F,2 | 
[V:1] D2^C2D4 | 
[V:2] E4D2F2- | 
[V:3] G,3A,_B,2A,2- | 
[V:1] z8 | 
[V:2] FED4^C2 | 
[V:3] A,G,F,2E,4 | 
[V:1] D4E4- | 
[V:2] D4z4 | 
[V:3] D,2F,2G,2A,2- | 
[V:1] E4D4 | 
[V:2] z4D4 | 
[V:3] A,B,C2A,2D2- | 
[V:1] z8 | 
[V:2] E8 | 
[V:3] D2^CB,C4 | 
[V:1] F4F4- | 
[V:2] D4A4- | 
[V:3] D4D,4 | 
[V:1] F2EDE4 | 
[V:2] A2B2c4 | 
[V:3] D,4C,4 | 
[V:1] A4G4 | 
[V:2] A2d4c2 | 
[V:3] D,4E,4 | 
[V:1] F2D4^C2 | 
[V:2] d2f2e4 | 
[V:3] D,4z4 | 
[V:1] D4z2A2- | 
[V:2] d2f4ed | 
[V:3] D,4D,4 | 
[V:1] ABc3BAG | 
[V:2] c2BAG4 | 
[V:3] F,4E,4 | 
[V:1] F3EG3F | 
[V:2] A4G4 | 
[V:3] D,4E,4 | 
[V:1] F4E4 | 
[V:2] d4G2c2- | 
[V:3] D,4C,4 | 
[V:1] G4F2_B2- | 
[V:2] cBc2A2d2 | 
[V:3] E,4D,4 | 
[V:1] BAA4G2 | 
[V:2] c2A2_B4 | 
[V:3] E,2F,2G,4 | 
[V:1] A6GF | 
[V:2] A8 | 
[V:3] D,8 | 
[V:1] E3FG2A2- | 
[V:2] c4c4 | 
[V:3] C,4z4 | 
[V:1] ABc2B2A2- | 
[V:2] c2e4f2- | 
[V:3] z8 | 
[V:1] AGF2E4 | 
[V:2] fed4^c2 | 
[V:3] z8 | 
[V:1] D4D4 | 
[V:2] d2D3EF2 | 
[V:3] z8 | 
[V:1] E4D4 | 
[V:2] G2A2_B3A | 
[V:3] z8 | 
[V:1] D2C2D2E2- | 
[V:2] GFE2D2C2 | 
[V:3] z8 | 
[V:1] EDD4^C2 | 
[V:2] F2G2E4 | 
[V:3] z8 | 
[V:1] [M:3/1]D12 | 
[V:2] [M:3/1]D12 | 
[V:3] [M:3/1]A,12 | 
[V:1] z12 | 
[V:2] A8B4 | 
[V:3] D,4C,4D,4 | 
[V:1] z12 | 
[V:2] A4G6F2 | 
[V:3] F,6D,2E,4 | 
[V:1] z12 | 
[V:2] D4C4D4 | 
[V:3] F,4A,4_B,4 | 
[V:1] z12 | 
[V:2] F6D2E4 | 
[V:3] A,4G,8 | 
[V:1] F8G4 | 
[V:2] F8c4 | 
[V:3] F,8E,4 | 
[V:1] F8F4 | 
[V:2] d6c2B2A2 | 
[V:3] D,8D,4 | 
[V:1] E4D8 | 
[V:2] A8^G4 | 
[V:3] C,4B,,8 | 
[V:1] C8D4 | 
[V:2] A8B4 | 
[V:3] A,,8G,,4 | 
[V:1] F6E2D4 | 
[V:2] A4d8 | 
[V:3] D,6C,2D,4 | 
[V:1] E8z4 | 
[V:2] c8B4 | 
[V:3] A,,4C,4D,4 | 
[V:1] G8F4 | 
[V:2] G4A8 | 
[V:3] E,4D,8 | 
[V:1] G4F4D4- | 
[V:2] G4d8 | 
[V:3] E,4D,4G,4- | 
[V:1] D4E4F4 | 
[V:2] B4c4d4 | 
[V:3] G,4E,4D,4 | 
[V:1] A6^G2G3^F | 
[V:2] A4B8 | 
[V:3] C,4D,4E,4 | 
[V:1] A4F4E4 | 
[V:2] A4D4E4 | 
[V:3] A,,4B,,4C,4 | 
[V:1] D8C4 | 
[V:2] F4G4E4 | 
[V:3] D,4G,,4A,,4 | 
[V:1] D4E4F4 | 
[V:2] D4G4A4 | 
[V:3] _B,,4C,4F,,4 | 
[V:1] D8^C4 | 
[V:2] G4E8 | 
[V:3] G,,4A,,8 | 
[V:1] D12 |]  
[V:2] D12 |]  
[V:3] A,12 |]  



